**kern	**kern	**kern	**kern
*MM60	*MM60	*MM60	*MM60
*k[f#]	*k[f#]	*k[f#]	*k[f#]
*M4/4	*M4/4	*M4/4	*M4/4
*tb32	*tb32	*tb32	*tb32
2r	4G	2r	2r
.	[4d	.	.
=1	=1	=1	=1
1r	8d]	1r	1r
.	8B	.	.
.	[4c	.	.
.	8c]	.	.
.	8A	.	.
.	[4B	.	.
=2	=2	=2	=2
1r	8B]	1r	1r
.	8G	.	.
.	[4A	.	.
.	8A]	.	.
.	8F#	.	.
.	[4G	.	.
=3	=3	=3	=3
1r	8G]	2r	1r
.	16A	.	.
.	16E	.	.
.	4F#T	.	.
.	8G	4d	.
.	8A	.	.
.	8B	[4g	.
.	16A	.	.
.	16G	.	.
=4	=4	=4	=4
1r	4.A	8g]	1r
.	.	8e	.
.	.	[4f#	.
.	8F#	.	.
.	4.G	8f#]	.
.	.	8d	.
.	.	[4e	.
.	8E	.	.
=5	=5	=5	=5
1r	4.F#	8e]	1r
.	.	8c#	.
.	.	2d	.
.	8D	.	.
.	8E	.	.
.	8F#	.	.
.	8G	4c#	.
.	8A	.	.
=6	=6	=6	=6
1r	8F#	4d	1r
.	8D	.	.
.	8E	4c	.
.	8F#	.	.
.	8G	8B	.
.	8F#	8A	.
.	8G	8B	.
.	8A	8c	.
=7	=7	=7	=7
1r	8B	4d	4g
.	8G	.	.
.	8A	4f#	[4dd
.	8D	.	.
.	4.E	4.g	8dd]
.	.	.	8b
.	.	.	[4cc
.	8C	16a	.
.	.	16g	.
=8	=8	=8	=8
1r	4.D	4.f#	8cc]
.	.	.	8a
.	.	.	[4b
.	8BB	16g	.
.	.	16f#	.
.	4.C	4.e	8b]
.	.	.	8g
.	.	.	[4a
.	8AA	16f#	.
.	.	16e	.
=9	=9	=9	=9
1r	4.BB	4.d	8a]
.	.	.	8f#
.	.	.	2g
.	8GG	16e	.
.	.	16d	.
.	4AA	8c	.
.	.	8B	.
.	4D	8c	4f#
.	.	16d	.
.	.	16c	.
=10	=10	=10	=10
1r	8E	4B	8g
.	8D	.	8f#
.	8E	8r	8g
.	8F#	8d	8a
.	8G	4d	8b
.	8F#	.	8a
.	8G	8r	8b
.	8A	8g	8cc#
=11	=11	=11	=11
4D	4A	4f#	8dd
.	.	.	8cc
[4G	8B	4g	4b
.	8d	.	.
8G]	4e	2a	4.cc
8E	.	.	.
[4F#	[4d	.	.
.	.	.	16dd
.	.	.	16cc
=12	=12	=12	=12
8F#]	4d]	2g	4.b
8D	.	.	.
[4E	2c	.	.
.	.	.	16cc
.	.	.	16b
8E]	.	2f#	4.a
8C	.	.	.
[4D	[4B	.	.
.	.	.	16b
.	.	.	16a
=13	=13	=13	=13
4D]	4B]	2e	8g
.	.	.	8f#
4C#	4A	.	8g
.	.	.	16a
.	.	.	16g
2D	4A	4d	4f#
.	[4d	4r	8r
.	.	.	8f#
=14	=14	=14	=14
2E	8d]	1r	4.g
.	8B	.	.
.	[4c	.	.
.	.	.	16a
.	.	.	16g
2D	8c]	.	4.f#
.	8A	.	.
.	[4B	.	.
.	.	.	16g
.	.	.	16f#
=15	=15	=15	=15
2C	8B]	2r	4.e
.	8G	.	.
.	[4A	.	.
.	.	.	16f#
.	.	.	16e
[2BB	8A]	4r	4d#
.	8F#	.	.
.	8G	[4B	[4e
.	16F#	.	.
.	16E	.	.
=16	=16	=16	=16
2BB]	2F#	4.B]	4e]
.	.	.	4d#T
.	.	8A	.
4E	4G	4B	4e
4r	4r	4r	[4b
=17	=17	=17	=17
1r	2r	4B	8b]
.	.	.	8g
.	.	[4f#	[4a
.	4BB	8f#]	8a]
.	.	8d#	8f#
.	[4E	8e	8g
.	.	16f#	16a
.	.	16g	16b
=18	=18	=18	=18
1r	8E]	4a	4cc
.	8C	.	.
.	[4D	8r	8r
.	.	8f#	8a
.	8D]	4g	4b
.	8BB	.	.
.	[4C	8r	8r
.	.	8e	8g
=19	=19	=19	=19
1r	8C]	4f#	4a
.	8AA	.	.
.	[4BB	8r	8r
.	.	8d	8f#
.	8BB]	4e	4g
.	8GG	.	.
.	4AA	8r	8r
.	.	8c#	8e
=20	=20	=20	=20
1r	8D	4A	4f# 4d
.	8E	.	.
.	8F#	[4d	4r
.	8G	.	.
.	4.A	8d]	2r
.	.	8B	.
.	.	[4c	.
.	8G	.	.
=21	=21	=21	=21
1r	4F#	8c]	4d
.	.	8A	.
.	8E	4B	4g
.	8D	.	.
.	8C	8g	4a
.	8c	8e	.
.	8A	4f#	[4dd
.	8D	.	.
=22	=22	=22	=22
1r	4E	4g	8dd]
.	.	.	8b
.	8r	4r	4cc
.	8e	.	.
.	4f#	8cc	4dd
.	.	8a	.
.	8e	4b	[4gg
.	8d	.	.
=23	=23	=23	=23
4AA	4c#	2a	8gg]
.	.	.	8ee
[4D	8d	.	4ff#
.	8D	.	.
8D]	4B	4.g	2ee
8BB	.	.	.
[4C	[4A	.	.
.	.	16a	.
.	.	16g	.
=24	=24	=24	=24
8C]	4A]	4.f#	2dd
8AA	.	.	.
[4BB	2G	.	.
.	.	16g	.
.	.	16f#	.
8BB]	.	4e	4.cc
8GG	.	.	.
4AA	[4F	4f	.
.	.	.	16dd
.	.	.	16cc
=25	=25	=25	=25
1GG	8F]	2g	4b
.	16E	.	.
.	16D	.	.
.	8E	.	2cc
.	16D	.	.
.	16C	.	.
.	4D	2f	.
.	[4G	.	4bT
=26	=26	=26	=26
4C	8G]	4e	4cc
.	8E	.	.
8r	2A	4r	8r
8C#	.	.	8ee
4D	.	4a	2ff#
4r	8r	[4dd	.
.	8F#	.	.
=27	=27	=27	=27
1r	4G	8dd]	2ee
.	.	8b	.
.	8r	[4cc	.
.	8A	.	.
.	4F#	8cc]	2dd
.	.	8a	.
.	8r	[4b	.
.	8G	.	.
=28	=28	=28	=28
1r	4E	8b]	2cc
.	.	8g	.
.	8r	[4a	.
.	8F#	.	.
.	4D	8a]	2b
.	.	8f#	.
.	8r	[4g	.
.	8E	.	.
=29	=29	=29	=29
1r	4C	8g]	2a
.	.	8e	.
.	4D	4f#T	.
.	8E	4g	8g
.	8F#	.	8a
.	8G	8r	8b
.	8A	8g	8cc#
=30	=30	=30	=30
4D	4A	4f#	8dd
.	.	.	8cc
[4G	8B	4g	4b
.	8d	.	.
8G]	4e	2a	4.cc
8E	.	.	.
[4F#	[4d	.	.
.	.	.	16dd
.	.	.	16cc
=31	=31	=31	=31
8F#]	4d]	2g	4.b
8D	.	.	.
[4E	2c	.	.
.	.	.	16cc
.	.	.	16b
8E]	.	2f#	4.a
8C	.	.	.
[4D	[4B	.	.
.	.	.	16b
.	.	.	16a
=32	=32	=32	=32
8D]	4B]	2e	4.g
8BB	.	.	.
4C#	4A	.	.
.	.	.	16a
.	.	.	16g
[2D	4A	4d	4f#
.	4d	4r	4r
=33	=33	=33	=33
1D]	8B	4d	2r
.	8A	.	.
.	8B	[4g	.
.	16A	.	.
.	16G	.	.
.	4.d	8g]	4a
.	.	8e	.
.	.	4f#	[4dd
.	16c	.	.
.	16d	.	.
=34	=34	=34	=34
[1GG	8B	[2.g	8dd]
.	8d	.	8b
.	8e	.	2cc
.	16d	.	.
.	16c	.	.
.	4.d	.	.
.	.	8g]	8b
.	8c	8f#	8a
=35	=35	=35	=35
1GG]	1d	1g	1b
==	==	==	==
*-	*-	*-	*-
